Sources/FrostedUI/Resources/Icons.xcassets/raiseHand16.imageset/raise-hand-16.svg

<svg width="16" height="16" viewBox="0 0 16 16" fill="none" xmlns="http://www.w3.org/2000/svg" data-fui-icon="true">
  <path
    d="M6.81445 1C7.5347 1 8.17115 1.36191 8.55078 1.91406C8.8421 1.76205 9.17334 1.67578 9.52441 1.67578C10.685 1.6759 11.6289 2.61506 11.6289 3.77734V4.27539C11.7557 4.25798 11.8806 4.25 12 4.25C12.5369 4.25 13.062 4.44487 13.4463 4.86914C13.8251 5.28757 14 5.85385 14 6.47949V9.01367C13.9999 12.4249 11.3029 15 8 15C4.69707 15 2.00008 12.4249 2 9.01367V4.45312C2 3.29087 2.944 2.35175 4.10449 2.35156C4.35 2.35156 4.58544 2.3954 4.80469 2.47266C5.07249 1.61827 5.87253 1.00003 6.81445 1ZM6.81445 2.5C6.47862 2.50003 6.20996 2.77129 6.20996 3.10156V7.47949C6.20996 7.89361 5.87404 8.22934 5.45996 8.22949C5.04575 8.22949 4.70996 7.89371 4.70996 7.47949V4.45312L4.69727 4.33203C4.64118 4.0589 4.39836 3.85156 4.10449 3.85156C3.76879 3.85175 3.5 4.12294 3.5 4.45312V9.01367C3.50008 11.5752 5.50404 13.5 8 13.5C10.496 13.5 12.4999 11.5752 12.5 9.01367V6.47949C12.5 6.12578 12.4032 5.95239 12.334 5.87598C12.27 5.80536 12.1699 5.75 12 5.75C11.8725 5.75 11.7922 5.76404 11.7451 5.77832C11.7233 5.78494 11.7108 5.79074 11.7051 5.79395C11.7023 5.7955 11.7009 5.79734 11.7002 5.79785H11.6992C11.6991 5.79796 11.6981 5.79874 11.6973 5.7998C11.6963 5.80104 11.6939 5.80347 11.6914 5.80762C11.6865 5.81583 11.6784 5.83295 11.6689 5.8623C11.6493 5.92358 11.6289 6.03053 11.6289 6.20312C11.6289 6.7354 11.5447 7.16378 11.4023 7.53223C11.2625 7.89426 11.0771 8.16832 10.9316 8.37891C10.6568 8.77682 10.5 8.98526 10.5 9.5C10.5 9.91421 10.1642 10.25 9.75 10.25C9.33579 10.25 9 9.91421 9 9.5C9 8.48771 9.40756 7.94584 9.69727 7.52637C9.83403 7.32834 9.93116 7.17697 10.0029 6.99121C10.0722 6.81174 10.1289 6.56902 10.1289 6.20312V3.77734C10.1289 3.44711 9.86019 3.1759 9.52441 3.17578C9.18853 3.17578 8.91895 3.44704 8.91895 3.77734V6.80371C8.91895 7.21792 8.58316 7.55371 8.16895 7.55371C7.75492 7.55349 7.41895 7.21779 7.41895 6.80371V3.10156C7.41895 2.77126 7.15033 2.5 6.81445 2.5Z"
    fill="currentColor"
  />
</svg>

<svg xmlns="http://www.w3.org/2000/svg" width="16" height="16" fill="none" data-fui-icon="true" viewBox="0 0 16 16"><path fill="currentColor" d="M6.814 1c.72 0 1.357.362 1.737.914a2.103 2.103 0 0 1 3.078 1.863v.498q.192-.025.371-.025c.537 0 1.062.195 1.446.62.38.418.554.984.554 1.61v2.534C14 12.424 11.303 15 8 15s-6-2.575-6-5.986v-4.56a2.103 2.103 0 0 1 2.805-1.981A2.11 2.11 0 0 1 6.815 1m0 1.5a.603.603 0 0 0-.604.602v4.377a.75.75 0 0 1-1.5 0V4.453l-.013-.121a.604.604 0 0 0-1.197.121v4.56C3.5 11.576 5.504 13.5 8 13.5s4.5-1.925 4.5-4.486V6.479c0-.353-.097-.527-.166-.603-.064-.07-.164-.126-.334-.126a1 1 0 0 0-.255.028.2.2 0 0 0-.04.016l-.005.004q0 0-.003.002l-.006.008a.3.3 0 0 0-.022.054c-.02.062-.04.169-.04.341 0 .532-.084.96-.227 1.33-.14.361-.325.635-.47.846-.275.398-.432.606-.432 1.121a.75.75 0 0 1-1.5 0c0-1.012.408-1.554.697-1.974.137-.198.234-.349.306-.535.07-.18.126-.422.126-.788V3.777a.603.603 0 0 0-.605-.601.604.604 0 0 0-.605.601v3.027a.75.75 0 0 1-1.5 0V3.102a.603.603 0 0 0-.605-.602"/></svg>
